X: 6
T: The Crosses Of Annagh
R: reel
M: 4/4
L: 1/8
K: Ador
EABG A2 (3Bcd | egg2 edBA | G2 BG AEE2 |DGBG AGED |
EABG A2 (3Bcd | egg2 edBA | GABd gedB |1AcBc A4 :|2 AcBc A2Bd ||
egg2 a2ga | bgab gedB | d2de g2gb | agab g2ed |
egg2 a2ga | bgab gedB |GABd gedB |1 AcBG A2Bd :|2 AcBG A2AG||


Tune 1170	Setting 26340

